img/ico/calc-ico.svg

<svg width="70" height="70" viewBox="0 0 70 70" fill="none" xmlns="http://www.w3.org/2000/svg">
<path d="M63.0938 22.0938H60.0428C59.806 19.535 58.6818 17.1397 56.8648 15.3227C55.0478 13.5057 52.6525 12.3815 50.0938 12.1447V5.09375C50.0938 4.82853 49.9884 4.57418 49.8009 4.38664C49.6133 4.19911 49.359 4.09375 49.0938 4.09375H5.09375C4.82853 4.09375 4.57418 4.19911 4.38664 4.38664C4.19911 4.57418 4.09375 4.82853 4.09375 5.09375V65.0938C4.09375 65.359 4.19911 65.6133 4.38664 65.8009C4.57418 65.9884 4.82853 66.0938 5.09375 66.0938H63.0938C63.8894 66.0938 64.6525 65.7777 65.2151 65.2151C65.7777 64.6525 66.0938 63.8894 66.0938 63.0938V25.0938C66.0938 24.2981 65.7777 23.535 65.2151 22.9724C64.6525 22.4098 63.8894 22.0938 63.0938 22.0938ZM49.0938 34.0938C51.1192 34.0915 53.1047 33.5302 54.8315 32.4715C56.5582 31.4128 57.9591 29.8979 58.8797 28.0938H60.0938V36.0938H38.0938V28.0938H39.3078C40.2284 29.8979 41.6293 31.4128 43.356 32.4715C45.0828 33.5302 47.0683 34.0915 49.0938 34.0938ZM58.0938 23.0938C58.0938 24.8738 57.5659 26.6138 56.577 28.0939C55.588 29.5739 54.1824 30.7275 52.5379 31.4087C50.8934 32.0899 49.0838 32.2681 47.3379 31.9208C45.5921 31.5736 43.9885 30.7164 42.7298 29.4577C41.4711 28.199 40.6139 26.5954 40.2667 24.8496C39.9194 23.1037 40.0976 21.2941 40.7788 19.6496C41.46 18.0051 42.6136 16.5995 44.0936 15.6105C45.5737 14.6216 47.3137 14.0938 49.0938 14.0938C51.4799 14.0964 53.7675 15.0455 55.4548 16.7327C57.142 18.42 58.0911 20.7076 58.0938 23.0938ZM6.09375 6.09375H48.0938V12.1447C45.535 12.3815 43.1397 13.5057 41.3227 15.3227C39.5057 17.1397 38.3815 19.535 38.1447 22.0938H35.0938C34.4755 22.0963 33.8731 22.2898 33.3691 22.6478C32.865 23.0058 32.4838 23.5108 32.2778 24.0938H24.0938V26.0938H32.0938V36.0938H24.0938V38.0938H32.0938V40.0938H24.0938V42.0938H32.0938V52.0938H24.0938V54.0938H32.0938V56.0938H24.0938V58.0938H32.0938V63.0938C32.0971 63.4352 32.1593 63.7735 32.2778 64.0938H6.09375V6.09375ZM64.0938 63.0938C64.0938 63.359 63.9884 63.6133 63.8009 63.8009C63.6133 63.9884 63.359 64.0938 63.0938 64.0938H35.0938C34.8285 64.0938 34.5742 63.9884 34.3866 63.8009C34.1991 63.6133 34.0938 63.359 34.0938 63.0938V25.0938C34.0938 24.8285 34.1991 24.5742 34.3866 24.3866C34.5742 24.1991 34.8285 24.0938 35.0938 24.0938H38.1447C38.2071 24.7707 38.3327 25.4402 38.5197 26.0938H37.0938C36.8285 26.0938 36.5742 26.1991 36.3866 26.3866C36.1991 26.5742 36.0938 26.8285 36.0938 27.0938V37.0938C36.0938 37.359 36.1991 37.6133 36.3866 37.8009C36.5742 37.9884 36.8285 38.0938 37.0938 38.0938H61.0938C61.359 38.0938 61.6133 37.9884 61.8009 37.8009C61.9884 37.6133 62.0938 37.359 62.0938 37.0938V27.0938C62.0938 26.8285 61.9884 26.5742 61.8009 26.3866C61.6133 26.1991 61.359 26.0938 61.0938 26.0938H59.6678C59.8548 25.4402 59.9804 24.7707 60.0428 24.0938H63.0938C63.359 24.0938 63.6133 24.1991 63.8009 24.3866C63.9884 24.5742 64.0938 24.8285 64.0938 25.0938V63.0938Z" fill="#DC3545"/>
<path d="M41.0938 40.0938H37.0938C36.8285 40.0938 36.5742 40.1991 36.3866 40.3866C36.1991 40.5742 36.0938 40.8285 36.0938 41.0938V45.0938C36.0938 45.359 36.1991 45.6133 36.3866 45.8009C36.5742 45.9884 36.8285 46.0938 37.0938 46.0938H41.0938C41.359 46.0938 41.6133 45.9884 41.8009 45.8009C41.9884 45.6133 42.0938 45.359 42.0938 45.0938V41.0938C42.0938 40.8285 41.9884 40.5742 41.8009 40.3866C41.6133 40.1991 41.359 40.0938 41.0938 40.0938ZM40.0938 44.0938H38.0938V42.0938H40.0938V44.0938Z" fill="#DC3545"/>
<path d="M61.0938 40.0938H53.0938C52.8285 40.0938 52.5742 40.1991 52.3866 40.3866C52.1991 40.5742 52.0938 40.8285 52.0938 41.0938V45.0938C52.0938 45.359 52.1991 45.6133 52.3866 45.8009C52.5742 45.9884 52.8285 46.0938 53.0938 46.0938H61.0938C61.359 46.0938 61.6133 45.9884 61.8009 45.8009C61.9884 45.6133 62.0938 45.359 62.0938 45.0938V41.0938C62.0938 40.8285 61.9884 40.5742 61.8009 40.3866C61.6133 40.1991 61.359 40.0938 61.0938 40.0938ZM60.0938 44.0938H54.0938V42.0938H60.0938V44.0938Z" fill="#DC3545"/>
<path d="M41.0938 48.0938H37.0938C36.8285 48.0938 36.5742 48.1991 36.3866 48.3866C36.1991 48.5742 36.0938 48.8285 36.0938 49.0938V53.0938C36.0938 53.359 36.1991 53.6133 36.3866 53.8009C36.5742 53.9884 36.8285 54.0938 37.0938 54.0938H41.0938C41.359 54.0938 41.6133 53.9884 41.8009 53.8009C41.9884 53.6133 42.0938 53.359 42.0938 53.0938V49.0938C42.0938 48.8285 41.9884 48.5742 41.8009 48.3866C41.6133 48.1991 41.359 48.0938 41.0938 48.0938ZM40.0938 52.0938H38.0938V50.0938H40.0938V52.0938Z" fill="#DC3545"/>
<path d="M41.0938 56.0938H37.0938C36.8285 56.0938 36.5742 56.1991 36.3866 56.3866C36.1991 56.5742 36.0938 56.8285 36.0938 57.0938V61.0938C36.0938 61.359 36.1991 61.6133 36.3866 61.8009C36.5742 61.9884 36.8285 62.0938 37.0938 62.0938H41.0938C41.359 62.0938 41.6133 61.9884 41.8009 61.8009C41.9884 61.6133 42.0938 61.359 42.0938 61.0938V57.0938C42.0938 56.8285 41.9884 56.5742 41.8009 56.3866C41.6133 56.1991 41.359 56.0938 41.0938 56.0938ZM40.0938 60.0938H38.0938V58.0938H40.0938V60.0938Z" fill="#DC3545"/>
<path d="M49.0938 40.0938H45.0938C44.8285 40.0938 44.5742 40.1991 44.3866 40.3866C44.1991 40.5742 44.0938 40.8285 44.0938 41.0938V45.0938C44.0938 45.359 44.1991 45.6133 44.3866 45.8009C44.5742 45.9884 44.8285 46.0938 45.0938 46.0938H49.0938C49.359 46.0938 49.6133 45.9884 49.8009 45.8009C49.9884 45.6133 50.0938 45.359 50.0938 45.0938V41.0938C50.0938 40.8285 49.9884 40.5742 49.8009 40.3866C49.6133 40.1991 49.359 40.0938 49.0938 40.0938ZM48.0938 44.0938H46.0938V42.0938H48.0938V44.0938Z" fill="#DC3545"/>
<path d="M49.0938 48.0938H45.0938C44.8285 48.0938 44.5742 48.1991 44.3866 48.3866C44.1991 48.5742 44.0938 48.8285 44.0938 49.0938V53.0938C44.0938 53.359 44.1991 53.6133 44.3866 53.8009C44.5742 53.9884 44.8285 54.0938 45.0938 54.0938H49.0938C49.359 54.0938 49.6133 53.9884 49.8009 53.8009C49.9884 53.6133 50.0938 53.359 50.0938 53.0938V49.0938C50.0938 48.8285 49.9884 48.5742 49.8009 48.3866C49.6133 48.1991 49.359 48.0938 49.0938 48.0938ZM48.0938 52.0938H46.0938V50.0938H48.0938V52.0938Z" fill="#DC3545"/>
<path d="M49.0938 56.0938H45.0938C44.8285 56.0938 44.5742 56.1991 44.3866 56.3866C44.1991 56.5742 44.0938 56.8285 44.0938 57.0938V61.0938C44.0938 61.359 44.1991 61.6133 44.3866 61.8009C44.5742 61.9884 44.8285 62.0938 45.0938 62.0938H49.0938C49.359 62.0938 49.6133 61.9884 49.8009 61.8009C49.9884 61.6133 50.0938 61.359 50.0938 61.0938V57.0938C50.0938 56.8285 49.9884 56.5742 49.8009 56.3866C49.6133 56.1991 49.359 56.0938 49.0938 56.0938ZM48.0938 60.0938H46.0938V58.0938H48.0938V60.0938Z" fill="#DC3545"/>
<path d="M61.0938 48.0938H53.0938C52.8285 48.0938 52.5742 48.1991 52.3866 48.3866C52.1991 48.5742 52.0938 48.8285 52.0938 49.0938V61.0938C52.0938 61.359 52.1991 61.6133 52.3866 61.8009C52.5742 61.9884 52.8285 62.0938 53.0938 62.0938H61.0938C61.359 62.0938 61.6133 61.9884 61.8009 61.8009C61.9884 61.6133 62.0938 61.359 62.0938 61.0938V49.0938C62.0938 48.8285 61.9884 48.5742 61.8009 48.3866C61.6133 48.1991 61.359 48.0938 61.0938 48.0938ZM60.0938 60.0938H54.0938V50.0938H60.0938V60.0938Z" fill="#DC3545"/>
<path d="M15.0938 16.0938C13.7093 16.0938 12.3559 16.5043 11.2048 17.2735C10.0536 18.0426 9.15641 19.1359 8.6266 20.415C8.09678 21.694 7.95816 23.1015 8.22826 24.4594C8.49835 25.8173 9.16504 27.0645 10.144 28.0435C11.123 29.0225 12.3703 29.6892 13.7281 29.9592C15.086 30.2293 16.4935 30.0907 17.7725 29.5609C19.0516 29.0311 20.1449 28.1339 20.914 26.9827C21.6832 25.8316 22.0938 24.4782 22.0938 23.0938C22.0914 21.238 21.3531 19.4589 20.0409 18.1466C18.7286 16.8344 16.9495 16.0961 15.0938 16.0938ZM15.0938 28.0938C14.1048 28.0938 13.1381 27.8005 12.3159 27.2511C11.4937 26.7017 10.8528 25.9208 10.4744 25.0072C10.0959 24.0935 9.9969 23.0882 10.1898 22.1183C10.3828 21.1484 10.859 20.2575 11.5582 19.5582C12.2575 18.859 13.1484 18.3827 14.1183 18.1898C15.0882 17.9969 16.0935 18.0959 17.0072 18.4744C17.9208 18.8528 18.7017 19.4937 19.2511 20.3159C19.8005 21.1381 20.0938 22.1048 20.0938 23.0938C20.0922 24.4193 19.5649 25.6902 18.6275 26.6275C17.6902 27.5649 16.4193 28.0922 15.0938 28.0938Z" fill="#DC3545"/>
<path d="M24.0938 20.0938H33.0938V22.0938H24.0938V20.0938Z" fill="#DC3545"/>
<path d="M14.0938 14.0938H40.0938C40.359 14.0938 40.6133 13.9884 40.8009 13.8009C40.9884 13.6133 41.0938 13.359 41.0938 13.0938V9.09375C41.0938 8.82853 40.9884 8.57418 40.8009 8.38664C40.6133 8.19911 40.359 8.09375 40.0938 8.09375H14.0938C13.8285 8.09375 13.5742 8.19911 13.3866 8.38664C13.1991 8.57418 13.0938 8.82853 13.0938 9.09375V13.0938C13.0938 13.359 13.1991 13.6133 13.3866 13.8009C13.5742 13.9884 13.8285 14.0938 14.0938 14.0938ZM15.0938 10.0938H39.0938V12.0938H15.0938V10.0938Z" fill="#DC3545"/>
<path d="M14.0937 23.6797L12.8007 22.3867L11.3867 23.8007L13.3867 25.8007C13.5742 25.9882 13.8286 26.0935 14.0937 26.0935C14.3589 26.0935 14.6132 25.9882 14.8007 25.8007L18.8007 21.8007L17.3867 20.3867L14.0937 23.6797Z" fill="#DC3545"/>
<path d="M15.0938 32.0938C13.7093 32.0938 12.3559 32.5043 11.2048 33.2735C10.0536 34.0426 9.15641 35.1359 8.6266 36.415C8.09678 37.694 7.95816 39.1015 8.22826 40.4594C8.49835 41.8172 9.16504 43.0645 10.144 44.0435C11.123 45.0225 12.3703 45.6892 13.7281 45.9592C15.086 46.2293 16.4935 46.0907 17.7725 45.5609C19.0516 45.0311 20.1449 44.1339 20.914 42.9827C21.6832 41.8316 22.0938 40.4782 22.0938 39.0938C22.0914 37.238 21.3531 35.4589 20.0409 34.1466C18.7286 32.8344 16.9495 32.0961 15.0938 32.0938ZM15.0938 44.0938C14.1048 44.0938 13.1381 43.8005 12.3159 43.2511C11.4937 42.7017 10.8528 41.9208 10.4744 41.0072C10.0959 40.0935 9.9969 39.0882 10.1898 38.1183C10.3828 37.1484 10.859 36.2575 11.5582 35.5582C12.2575 34.859 13.1484 34.3827 14.1183 34.1898C15.0882 33.9969 16.0935 34.0959 17.0072 34.4744C17.9208 34.8528 18.7017 35.4937 19.2511 36.3159C19.8005 37.1381 20.0938 38.1048 20.0938 39.0938C20.0922 40.4193 19.5649 41.6902 18.6275 42.6275C17.6902 43.5649 16.4193 44.0922 15.0938 44.0938Z" fill="#DC3545"/>
<path d="M14.0937 39.6797L12.8007 38.3867L11.3867 39.8007L13.3867 41.8007C13.5742 41.9882 13.8286 42.0935 14.0937 42.0935C14.3589 42.0935 14.6132 41.9882 14.8007 41.8007L18.8007 37.8007L17.3867 36.3867L14.0937 39.6797Z" fill="#DC3545"/>
<path d="M15.0938 48.0938C13.7093 48.0938 12.3559 48.5043 11.2048 49.2735C10.0536 50.0426 9.15641 51.1359 8.6266 52.415C8.09678 53.694 7.95816 55.1015 8.22826 56.4594C8.49835 57.8172 9.16504 59.0645 10.144 60.0435C11.123 61.0225 12.3703 61.6892 13.7281 61.9592C15.086 62.2293 16.4935 62.0907 17.7725 61.5609C19.0516 61.0311 20.1449 60.1339 20.914 58.9827C21.6832 57.8316 22.0938 56.4782 22.0938 55.0938C22.0914 53.238 21.3531 51.4589 20.0409 50.1466C18.7286 48.8344 16.9495 48.0961 15.0938 48.0938ZM15.0938 60.0938C14.1048 60.0938 13.1381 59.8005 12.3159 59.2511C11.4937 58.7017 10.8528 57.9208 10.4744 57.0072C10.0959 56.0935 9.9969 55.0882 10.1898 54.1183C10.3828 53.1484 10.859 52.2575 11.5582 51.5582C12.2575 50.859 13.1484 50.3827 14.1183 50.1898C15.0882 49.9969 16.0935 50.0959 17.0072 50.4744C17.9208 50.8528 18.7017 51.4937 19.2511 52.3159C19.8005 53.1381 20.0938 54.1048 20.0938 55.0938C20.0922 56.4193 19.5649 57.6902 18.6275 58.6275C17.6902 59.5649 16.4193 60.0922 15.0938 60.0938Z" fill="#DC3545"/>
<path d="M14.0937 55.6797L12.8007 54.3867L11.3867 55.8007L13.3867 57.8007C13.5742 57.9882 13.8286 58.0935 14.0937 58.0935C14.3589 58.0935 14.6132 57.9882 14.8007 57.8007L18.8007 53.8007L17.3867 52.3867L14.0937 55.6797Z" fill="#DC3545"/>
<path d="M46.5228 17.0297C46.0748 17.4047 45.7147 17.8735 45.4678 18.4029C45.2209 18.9324 45.0932 19.5095 45.0938 20.0937H47.0938C47.0935 19.7995 47.1582 19.5088 47.2831 19.2425C47.4081 18.9761 47.5903 18.7406 47.8168 18.5528C48.0432 18.3649 48.3083 18.2293 48.5932 18.1557C48.878 18.082 49.1756 18.0721 49.4648 18.1267C49.8604 18.2039 50.224 18.3974 50.5091 18.6824C50.7941 18.9674 50.9876 19.3311 51.0648 19.7267C51.1282 20.0597 51.1056 20.4035 50.999 20.7253C50.8924 21.0471 50.7054 21.3364 50.4558 21.5657C49.7346 22.194 49.1522 22.9655 48.7456 23.8311C48.3389 24.6968 48.1169 25.6376 48.0938 26.5937V27.0937H50.0938V26.5937C50.1168 25.9124 50.2814 25.2434 50.577 24.6291C50.8726 24.0149 51.2927 23.4688 51.8108 23.0257C52.5773 22.3167 53.0362 21.336 53.0893 20.2931C53.1425 19.2503 52.7858 18.228 52.0954 17.4446C51.405 16.6612 50.4356 16.1789 49.3944 16.1006C48.3531 16.0223 47.3225 16.3544 46.5228 17.0257V17.0297Z" fill="#DC3545"/>
<path d="M48.0938 28.0938H50.0938V30.0938H48.0938V28.0938Z" fill="#DC3545"/>
</svg>

<svg xmlns="http://www.w3.org/2000/svg" width="70" height="70" fill="currentColor" viewBox="0 0 70 70" class="svg-icon">
    <path
        d="M63.094 22.094h-3.051a11.01 11.01 0 0 0-9.95-9.95v-7.05a1 1 0 0 0-1-1h-44a1 1 0 0 0-1 1v60a1 1 0 0 0 1 1h58a3 3 0 0 0 3-3v-38a3 3 0 0 0-3-3m-14 12a11 11 0 0 0 9.786-6h1.214v8h-22v-8h1.214a11 11 0 0 0 9.786 6m9-11a9 9 0 1 1-9-9 9.01 9.01 0 0 1 9 9m-52-17h42v6.05a11.01 11.01 0 0 0-9.95 9.95h-3.05a3 3 0 0 0-2.816 2h-8.184v2h8v10h-8v2h8v2h-8v2h8v10h-8v2h8v2h-8v2h8v5c.003.341.065.68.184 1H6.094zm58 57a1 1 0 0 1-1 1h-28a1 1 0 0 1-1-1v-38a1 1 0 0 1 1-1h3.05q.095 1.017.376 2h-1.426a1 1 0 0 0-1 1v10a1 1 0 0 0 1 1h24a1 1 0 0 0 1-1v-10a1 1 0 0 0-1-1h-1.426q.28-.983.375-2h3.05a1 1 0 0 1 1 1z" />
    <path
        d="M41.094 40.094h-4a1 1 0 0 0-1 1v4a1 1 0 0 0 1 1h4a1 1 0 0 0 1-1v-4a1 1 0 0 0-1-1m-1 4h-2v-2h2zM61.094 40.094h-8a1 1 0 0 0-1 1v4a1 1 0 0 0 1 1h8a1 1 0 0 0 1-1v-4a1 1 0 0 0-1-1m-1 4h-6v-2h6zM41.094 48.094h-4a1 1 0 0 0-1 1v4a1 1 0 0 0 1 1h4a1 1 0 0 0 1-1v-4a1 1 0 0 0-1-1m-1 4h-2v-2h2zM41.094 56.094h-4a1 1 0 0 0-1 1v4a1 1 0 0 0 1 1h4a1 1 0 0 0 1-1v-4a1 1 0 0 0-1-1m-1 4h-2v-2h2zM49.094 40.094h-4a1 1 0 0 0-1 1v4a1 1 0 0 0 1 1h4a1 1 0 0 0 1-1v-4a1 1 0 0 0-1-1m-1 4h-2v-2h2zM49.094 48.094h-4a1 1 0 0 0-1 1v4a1 1 0 0 0 1 1h4a1 1 0 0 0 1-1v-4a1 1 0 0 0-1-1m-1 4h-2v-2h2zM49.094 56.094h-4a1 1 0 0 0-1 1v4a1 1 0 0 0 1 1h4a1 1 0 0 0 1-1v-4a1 1 0 0 0-1-1m-1 4h-2v-2h2zM61.094 48.094h-8a1 1 0 0 0-1 1v12a1 1 0 0 0 1 1h8a1 1 0 0 0 1-1v-12a1 1 0 0 0-1-1m-1 12h-6v-10h6zM15.094 16.094a7 7 0 1 0 7 7 7.01 7.01 0 0 0-7-7m0 12a5 5 0 1 1 5-5 5.006 5.006 0 0 1-5 5M24.094 20.094h9v2h-9zM14.094 14.094h26a1 1 0 0 0 1-1v-4a1 1 0 0 0-1-1h-26a1 1 0 0 0-1 1v4a1 1 0 0 0 1 1m1-4h24v2h-24z" />
    <path
        d="M14.094 23.68 12.8 22.387 11.387 23.8l2 2a1 1 0 0 0 1.414 0l4-4-1.414-1.414zM15.094 32.094a7 7 0 1 0 7 7 7.01 7.01 0 0 0-7-7m0 12a5 5 0 1 1 5-5 5.006 5.006 0 0 1-5 5" />
    <path
        d="M14.094 39.68 12.8 38.387 11.387 39.8l2 2a1 1 0 0 0 1.414 0l4-4-1.414-1.414zM15.094 48.094a7 7 0 1 0 7 7 7.01 7.01 0 0 0-7-7m0 12a5 5 0 1 1 5-5 5.006 5.006 0 0 1-5 5" />
    <path
        d="M14.094 55.68 12.8 54.387 11.387 55.8l2 2a1 1 0 0 0 1.414 0l4-4-1.414-1.414zM46.523 17.03a3.99 3.99 0 0 0-1.43 3.064h2a2 2 0 0 1 2.372-1.967 2.03 2.03 0 0 1 1.6 1.6 1.99 1.99 0 0 1-.61 1.839 6.9 6.9 0 0 0-2.361 5.028v.5h2v-.5a4.91 4.91 0 0 1 1.717-3.568 4 4 0 0 0-5.288-6zM48.094 28.094h2v2h-2z" />
</svg>
